X: 12948
T: Fiddler's Green
R: waltz
M: 3/4
K: Cmajor
G,|C- D E|F E D|C D E|A,2 z/ G,/|C D E|F G A|G E C|D2 E/E/|F G A|A G F|
E F G|G2 F/F/|E D E|F E D|C B, C|D G F|E E E|F D B,|D C2-|C2 G|A F A|
G E C|D3-|D2 E|F G A|A G F|E F G|G F E|D E F|G F E|D- E D|C2||

